X:147
M:C|
L:1/8
K:G
|:d(e/f/) ge dBGB|D(A/B/) cA dBcA|d(e/f/) ge dBGB|AdAF G2 G,2:|
|:g2 "tr"f2 gdBG|cBAG FAFD|g2 "tr"f2 gdBG|AdAF G2 G,2:|

